packages/foundations/assets/icons/functional/images/logos/subway_14.svg

<svg width="14" height="14" viewBox="0 0 14 14" fill="none" xmlns="http://www.w3.org/2000/svg">
<g clip-path="url(#clip0_185_1732)">
<path fill-rule="evenodd" clip-rule="evenodd" d="M10.5 1.39999C11.6598 1.39999 12.6 2.3402 12.6 3.49999V10.5C12.6 11.6598 11.6598 12.6 10.5 12.6H3.50002C2.34023 12.6 1.40002 11.6598 1.40002 10.5V3.49999C1.40002 2.3402 2.34023 1.39999 3.50002 1.39999H10.5ZM3.50002 2.79999C3.14104 2.79999 2.84517 3.07022 2.80473 3.41836L2.80002 10.5C2.80002 10.859 3.07025 11.1548 3.41839 11.1953L10.5 11.2C10.859 11.2 11.1549 10.9298 11.1953 10.5816L11.2 3.49999C11.2 3.14101 10.9298 2.84514 10.5817 2.8047L3.50002 2.79999ZM6.06669 4.19999V7.63442C6.06669 8.2616 6.44738 8.63333 7.00011 8.63333C7.52033 8.63333 7.888 8.30405 7.92945 7.74242L7.93336 4.19999H9.33336V7.76196C9.33336 9.25433 8.26326 9.79999 7.00011 9.79999C5.77907 9.79999 4.73826 9.28887 4.67023 7.90793L4.66669 4.19999H6.06669Z" fill="#1A1C1F"/>
</g>
<defs>
<clipPath id="clip0_185_1732">
<rect width="14" height="14" fill="white"/>
</clipPath>
</defs>
</svg>

<svg xmlns="http://www.w3.org/2000/svg" width="14" height="14" fill="none"><g clip-path="url(#a)"><path fill="#1A1C1F" fill-rule="evenodd" d="M10.5 1.4c1.16 0 2.1.94 2.1 2.1v7a2.1 2.1 0 0 1-2.1 2.1h-7a2.1 2.1 0 0 1-2.1-2.1v-7c0-1.16.94-2.1 2.1-2.1zm-7 1.4a.7.7 0 0 0-.695.618L2.8 10.5a.7.7 0 0 0 .618.695l7.082.005a.7.7 0 0 0 .695-.618L11.2 3.5a.7.7 0 0 0-.618-.695zm2.567 1.4v3.434c0 .628.38 1 .933 1 .52 0 .888-.33.93-.892L7.932 4.2h1.4v3.562C9.333 9.254 8.263 9.8 7 9.8c-1.22 0-2.262-.511-2.33-1.892L4.667 4.2z" clip-rule="evenodd"/></g><defs><clipPath id="a"><path fill="#fff" d="M0 0h14v14H0z"/></clipPath></defs></svg>
